X:1
T:Changing Guard at Buckingham Palace
M:6/8
L:1/8
K:C
 d| e2 G G2 G| ccc d e2||| eGG GGG| c2 cd e2||| AAA ccc| GGG c2 c|\
 d2 d d2 c| eef g3-| g3- g2| Ge c3- c| z4 z|
